Suru++-Ubuntu/apps/scalable/nemiver.svg

<svg width="256" height="256" version="1.1" viewBox="0 0 67.73 67.73" xmlns="http://www.w3.org/2000/svg" xmlns:xlink="http://www.w3.org/1999/xlink">
 <defs>
  <linearGradient id="linearGradient1108" x1="296" x2="296" y1="-212" y2="236" gradientUnits="userSpaceOnUse">
   <stop style="stop-color:#ffffff" offset="0"/>
   <stop style="stop-color:#ffffff;stop-opacity:.09803922" offset=".125"/>
   <stop style="stop-color:#000000;stop-opacity:.09803922" offset=".925"/>
   <stop style="stop-color:#000000;stop-opacity:.49803922" offset="1"/>
  </linearGradient>
  <clipPath id="clipPath1082-3-3675">
   <path d="M 361.9375,-212 C 507.2348,-212 528,-191.28677 528,-46.125 V 70.125 C 528,215.28618 507.2348,236 361.9375,236 H 214.0625 C 68.7652,236 48,215.28618 48,70.125 V -46.125 C 48,-191.28677 68.7652,-212 214.0625,-212 Z" style="fill:#8c59d9"/>
  </clipPath>
  <filter id="filter931" x="-.01" y="-.01" width="1.023" height="1.025" style="color-interpolation-filters:sRGB">
   <feGaussianBlur stdDeviation="1.16"/>
  </filter>
  <filter id="filter925" x="-.02" y="-.03" width="1.046" height="1.05" style="color-interpolation-filters:sRGB">
   <feGaussianBlur stdDeviation="2.32"/>
  </filter>
  <linearGradient id="linearGradient928" x1="39.998" x2="263.998" y1="91.998" y2="91.998" gradientUnits="userSpaceOnUse">
   <stop style="stop-color:#000000;stop-opacity:.25877193" offset="0"/>
   <stop style="stop-color:#000000" offset=".491"/>
   <stop style="stop-color:#000000;stop-opacity:0" offset="1"/>
  </linearGradient>
  <clipPath id="clipPath942-3">
   <path d="m39.998047 108v113.08203c0 35.29672 3.623657 38.91992 38.992187 38.91992h146.01368c35.36853 0 38.99414-3.6232 38.99414-38.91992v-113.08203z" style="fill:url(#linearGradient946)"/>
  </clipPath>
  <filter id="filter1001" x="-.05" y="-.05" width="1.098" height="1.094" style="color-interpolation-filters:sRGB">
   <feGaussianBlur stdDeviation="1.957"/>
  </filter>
 </defs>
 <g transform="translate(0,-229.26666)">
  <path transform="matrix(.26458333 0 0 .26458333 0 232.67026)" d="m162.53675 5.568c72.64865 0 83.03125 10.356615 83.03125 82.9375v58.125c0 72.58059-10.3826 82.9375-83.03125 82.9375h-73.9375c-72.64865 0-83.03125-10.35691-83.03125-82.9375v-58.125c0-72.580885 10.3826-82.9375 83.03125-82.9375z" style="filter:url(#filter925);opacity:.2"/>
  <path transform="matrix(.26458333 0 0 .26458333 0 232.67026)" d="m162.53675 4.568c72.64865 0 83.03125 10.356615 83.03125 82.9375v58.125c0 72.58059-10.3826 82.9375-83.03125 82.9375h-73.9375c-72.64865 0-83.03125-10.35691-83.03125-82.9375v-58.125c0-72.580885 10.3826-82.9375 83.03125-82.9375z" style="filter:url(#filter931);opacity:.1"/>
  <g transform="matrix(.26458333 0 0 .26458333 -6.993466 221.97263)" style="enable-background:new;fill:#64b515">
   <path d="M 188.96875,44.000002 C 261.61739,43.999999 272,54.356621 272,126.9375 v 58.125 C 271.99999,257.64309 261.61739,268 188.96875,268 H 115.03124 C 42.3826,268.00001 32,257.64309 32,185.0625 v -58.125 C 32,54.356619 42.3826,43.999996 115.03125,44 Z" style="fill:#64b515"/>
  </g>
  <g transform="matrix(.26458333 0 0 .26458333 -6.993461 221.97262)" style="enable-background:new">
   <path transform="translate(26.431979,27.568026)" d="m5.5683594 139.71484v17.7793c0 9.07257 0.1620995 17.17296 0.5878906 24.40234 0.2128955 3.6147 0.4922655 7.01124 0.8496094 10.20313 0.3573439 3.19188 0.7931865 6.18021 1.3203125 8.97461 0.5271259 2.7944 1.1449458 5.39611 1.8671871 7.81836 0.722242 2.42224 1.547544 4.66482 2.490235 6.74023s2.002932 3.98242 3.191406 5.73633 2.505253 3.35478 3.964844 4.8125c1.459591 1.45773 3.062317 2.77211 4.818359 3.95898 1.756042 1.18688 3.666315 2.24616 5.744141 3.1875 2.077826 0.94135 4.323102 1.7652 6.748047 2.48633 2.424944 0.72114 5.028776 1.33898 7.826171 1.86524 1.960424 0.3688 4.140997 0.64015 6.294922 0.92383h77.650396 70.9414c2.15393-0.28368 4.3345-0.55503 6.29492-0.92383 2.7974-0.52626 5.40318-1.1441 7.82813-1.86524 2.42494-0.72113 4.67022-1.54498 6.74805-2.48633 2.07782-0.94134 3.98809-2.00063 5.74414-3.1875 1.75604-1.18686 3.35681-2.50125 4.8164-3.95898 1.45959-1.45772 2.77832-3.05859 3.9668-4.8125 1.18847-1.75391 2.24676-3.66092 3.18945-5.73633s1.76995-4.31799 2.49219-6.74023c0.72224-2.42225 1.34006-5.02396 1.86719-7.81836 0.52712-2.7944 0.96297-5.78273 1.32031-8.97461 0.35734-3.19189 0.63671-6.58843 0.84961-10.20313 0.42579-7.22938 0.58789-15.32977 0.58789-24.40234v-17.7793h-240z" style="fill:#ffffff;opacity:.05"/>
   <path d="m224.75777 266.17155c2.2264-0.28368 4.48032-0.55503 6.50669-0.92383 2.8915-0.52626 5.58493-1.1441 8.09146-1.86524 2.50651-0.72113 4.82732-1.54498 6.97505-2.48633 2.14771-0.94134 4.12224-2.00063 5.93736-3.1875 1.81512-1.18686 3.46973-2.50125 4.97842-3.95898 1.50869-1.45772 2.87178-3.05859 4.10024-4.8125 1.22845-1.75391 2.32234-3.66092 3.29674-5.73633 0.97441-2.07541 1.82949-4.31799 2.57603-6.74023 0.74653-2.42225 1.38514-5.02396 1.93-7.81836 0.54485-2.7944 0.99536-5.78273 1.36472-8.97461 0.36936-3.19189 0.65813-6.58843 0.87819-10.20313 0.44011-7.22938 0.60767-15.32977 0.60767-24.40234v-58.125c0-9.07261-0.16756-17.17294-0.60767-24.40235-0.22006-3.6147-0.50883-7.011231-0.87819-10.203122-0.21008-1.815451-0.5102-3.418418-0.77523-5.103516h-118.30727v178.94337z" style="fill:#ffffff;opacity:.05"/>
   <path transform="translate(26.431979,27.568026)" d="m243.38086 59.660156c-0.1944-1.277609-0.343-2.664108-0.57031-3.86914-0.52713-2.794405-1.14495-5.396115-1.86719-7.81836s-1.5495-4.664823-2.49219-6.740234-2.00098-3.984379-3.18945-5.738281c-1.18848-1.753903-2.50721-3.352827-3.9668-4.810547-1.45959-1.457721-3.06036-2.774073-4.8164-3.960938-1.75605-1.186864-3.66632-2.244212-5.74414-3.185547-2.07783-0.941334-4.32311-1.767151-6.74805-2.488281-2.42495-0.72113-5.03073-1.338982-7.82813-1.865234-2.79739-0.526253-5.78724-0.959706-8.98242-1.316406-3.19518-0.356701-6.59459-0.635183-10.21289-0.847657-7.2366-0.424948-15.3447-0.587891-24.42578-0.58789h-73.937501c-9.081081-1e-6 -17.189179 0.162942-24.425781 0.58789-3.618301 0.212474-7.019662 0.490956-10.214844 0.847657-3.195181 0.3567-6.185025 0.790153-8.982422 1.316406-2.797396 0.526252-5.401227 1.144104-7.826171 1.865234-2.424945 0.721131-4.670221 1.546947-6.748047 2.488281-2.077827 0.941335-3.988099 1.998683-5.744141 3.185547-1.756042 1.186865-3.358768 2.503217-4.818359 3.960938-1.459592 1.45772-2.77637 3.056644-3.964844 4.810547-1.188474 1.753902-2.248715 3.66287-3.191406 5.738281s-1.767993 4.317989-2.490235 6.740234c-0.7222414 2.422245-1.3400612 5.023955-1.8671871 7.81836-0.2273127 1.205032-0.3759122 2.591531-0.5703125 3.86914h235.625z" style="fill:#e4e4e4"/>
   <path transform="matrix(1.0518973,0,0,1,-7.8863557,-20.771818)" d="m78.990234 70.001953c-35.36812-0.17299-38.992187 3.625145-38.992187 38.921877v1.07617h224v-1.07617c0-35.296732-3.62603-39.094867-38.99414-38.921877h-73.00586z" clip-path="url(#clipPath942-3)" style="fill:url(#linearGradient928);filter:url(#filter932);opacity:.5"/>
   <g transform="matrix(2.1976903,0,0,2.1976903,12.814331,120.39613)" style="enable-background:new;stroke:#ffffff">
    <g transform="translate(1.6984499)">
     <g transform="translate(-1.1157514)">
      <path d="m62.750441-1.1100638a7.5837201 11.375581 0 0 0-7.584312 11.375579 7.5837201 11.375581 0 0 0 0.03377 0.99003l-11.5471-11.783499-2.68126 2.6270476 16.736322 17.077586h-15.181955v3.72906h12.297176a10.111626 13.27151 0 0 0-2.059157 6.243237l-11.792386 12.03412 2.68126 2.627045 9.296871-9.488831a10.111626 13.27151 0 0 0 9.800771 10.070942 10.111626 13.27151 0 0 0 9.802551-10.067388l9.29509 9.485277 2.680374-2.627045-11.79239-12.03412a10.111626 13.27151 0 0 0-2.067157-6.243237h12.304291v-3.72906h-15.183732l16.738988-17.083808-2.680374-2.6270476-11.551545 11.78972a7.5837201 11.375581 0 0 0 0.03733-0.99003 7.5837201 11.375581 0 0 0-7.583426-11.375579z" style="fill-rule:evenodd;fill:#3f3f3f"/>
      <path transform="matrix(.45502317 0 0 .45502317 5.6139283 -36.798278)" d="m125.56836 78.431641a16.666668 25.000003 0 0 0-16.66797 24.999999 16.666668 25.000003 0 0 0 0.0742 2.17578l-25.376934-25.896482-5.892578 5.773437 36.781252 37.531245h-33.365236v8.19532h27.025386a22.222223 29.166669 0 0 0-4.52539 13.7207l-25.916012 26.44727 5.892578 5.77343 20.431644-20.85351a22.222223 29.166669 0 0 0 21.53906 22.13281 22.222223 29.166669 0 0 0 21.54297-22.125l20.42773 20.8457 5.89063-5.77343-25.91602-26.44727a22.222223 29.166669 0 0 0-4.54297-13.7207h27.04102v-8.19532h-33.36914l36.78711-37.544917-5.89063-5.773437-25.38672 25.910154a16.666668 25.000003 0 0 0 0.082-2.17578 16.666668 25.000003 0 0 0-16.66602-24.999999z" style="fill-rule:evenodd;fill:#3f3f3f;filter:url(#filter1001)"/>
     </g>
    </g>
   </g>
  </g>
  <path transform="matrix(.13229167 0 0 .13229167 -4.8768 261.66013)" d="M 361.9375,-212 C 507.2348,-212 528,-191.28677 528,-46.125 V 70.125 C 528,215.28618 507.2348,236 361.9375,236 H 214.0625 C 68.7652,236 48,215.28618 48,70.125 V -46.125 C 48,-191.28677 68.7652,-212 214.0625,-212 Z" clip-path="url(#clipPath1082-3-3675)" style="fill:none;opacity:.4;stroke-linecap:round;stroke-linejoin:round;stroke-width:8;stroke:url(#linearGradient1108)"/>
 </g>
</svg>

<svg xmlns="http://www.w3.org/2000/svg" xmlns:xlink="http://www.w3.org/1999/xlink" width="256" height="256" version="1.1" viewBox="0 0 67.73 67.73">
 <defs>
  <linearGradient id="linearGradient1108" x1="296" x2="296" y1="-212" y2="236" gradientUnits="userSpaceOnUse" xlink:href="#linearGradient1013"/>
  <linearGradient id="linearGradient1013">
   <stop offset="0" style="stop-color:#ffffff"/>
   <stop style="stop-color:#ffffff;stop-opacity:0.09803922" offset=".125"/>
   <stop style="stop-color:#000000;stop-opacity:0.09803922" offset=".925"/>
   <stop offset="1" style="stop-color:#000000;stop-opacity:0.49803922"/>
  </linearGradient>
  <clipPath id="clipPath1082-3-3675" clipPathUnits="userSpaceOnUse">
   <path d="M 361.9375,-212 C 507.2348,-212 528,-191.28677 528,-46.125 V 70.125 C 528,215.28618 507.2348,236 361.9375,236 H 214.0625 C 68.7652,236 48,215.28618 48,70.125 V -46.125 C 48,-191.28677 68.7652,-212 214.0625,-212 Z" style="fill:#8c59d9"/>
  </clipPath>
  <filter style="color-interpolation-filters:sRGB" id="filter931" width="1.023" height="1.025" x="-.01" y="-.01">
   <feGaussianBlur stdDeviation="1.16"/>
  </filter>
  <filter style="color-interpolation-filters:sRGB" id="filter925" width="1.046" height="1.05" x="-.02" y="-.03">
   <feGaussianBlur stdDeviation="2.32"/>
  </filter>
  <linearGradient id="linearGradient928" x1="39.998" x2="263.998" y1="91.998" y2="91.998" gradientUnits="userSpaceOnUse" xlink:href="#linearGradient926"/>
  <linearGradient id="linearGradient926">
   <stop style="stop-color:#000000;stop-opacity:0.25877193" offset="0"/>
   <stop offset=".491" style="stop-color:#000000"/>
   <stop style="stop-color:#000000;stop-opacity:0" offset="1"/>
  </linearGradient>
  <clipPath id="clipPath942-3" clipPathUnits="userSpaceOnUse">
   <path d="m 39.998047,108 v 113.08203 c 0,35.29672 3.623657,38.91992 38.992187,38.91992 h 73.007816 73.00586 c 35.36853,0 38.99414,-3.6232 38.99414,-38.91992 V 108 Z" style="fill:url(#linearGradient946)"/>
  </clipPath>
  <filter style="color-interpolation-filters:sRGB" id="filter1001" width="1.098" height="1.094" x="-.05" y="-.05">
   <feGaussianBlur stdDeviation="1.957"/>
  </filter>
 </defs>
 <g transform="translate(0,-229.26666)">
  <path d="m 162.53675,5.568 c 72.64865,0 83.03125,10.356615 83.03125,82.9375 v 58.125 c 0,72.58059 -10.3826,82.9375 -83.03125,82.9375 H 88.59925 C 15.9506,229.568 5.5679999,219.21109 5.5679999,146.6305 V 88.5055 C 5.5679999,15.924615 15.9506,5.568 88.59925,5.568 Z" transform="matrix(0.26458333,0,0,0.26458333,0,232.67026)" style="opacity:0.2;filter:url(#filter925)"/>
  <path style="opacity:0.1;filter:url(#filter931)" d="m 162.53675,4.568 c 72.64865,0 83.03125,10.356615 83.03125,82.9375 v 58.125 c 0,72.58059 -10.3826,82.9375 -83.03125,82.9375 H 88.59925 C 15.9506,228.568 5.5679999,218.21109 5.5679999,145.6305 V 87.5055 C 5.5679999,14.924615 15.9506,4.568 88.59925,4.568 Z" transform="matrix(0.26458333,0,0,0.26458333,0,232.67026)"/>
  <g transform="matrix(0.26458333,0,0,0.26458333,-6.993466,221.97263)" style="enable-background:new;fill:#64b515">
   <path d="M 188.96875,44.000002 C 261.61739,43.999999 272,54.356621 272,126.9375 v 58.125 C 271.99999,257.64309 261.61739,268 188.96875,268 H 115.03124 C 42.3826,268.00001 32,257.64309 32,185.0625 v -58.125 C 32,54.356619 42.3826,43.999996 115.03125,44 Z" style="fill:#64b515"/>
  </g>
  <g transform="matrix(0.26458333,0,0,0.26458333,-6.993461,221.97262)" style="enable-background:new">
   <path style="opacity:0.05;fill:#ffffff" d="M 5.5683594 139.71484 L 5.5683594 157.49414 C 5.5683594 166.56671 5.7304589 174.6671 6.15625 181.89648 C 6.3691455 185.51118 6.6485155 188.90772 7.0058594 192.09961 C 7.3632033 195.29149 7.7990459 198.27982 8.3261719 201.07422 C 8.8532978 203.86862 9.4711177 206.47033 10.193359 208.89258 C 10.915601 211.31482 11.740903 213.5574 12.683594 215.63281 C 13.626285 217.70822 14.686526 219.61523 15.875 221.36914 C 17.063474 223.12305 18.380253 224.72392 19.839844 226.18164 C 21.299435 227.63937 22.902161 228.95375 24.658203 230.14062 C 26.414245 231.3275 28.324518 232.38678 30.402344 233.32812 C 32.48017 234.26947 34.725446 235.09332 37.150391 235.81445 C 39.575335 236.53559 42.179167 237.15343 44.976562 237.67969 C 46.936986 238.04849 49.117559 238.31984 51.271484 238.60352 L 128.92188 238.60352 L 199.86328 238.60352 C 202.01721 238.31984 204.19778 238.04849 206.1582 237.67969 C 208.9556 237.15343 211.56138 236.53559 213.98633 235.81445 C 216.41127 235.09332 218.65655 234.26947 220.73438 233.32812 C 222.8122 232.38678 224.72247 231.32749 226.47852 230.14062 C 228.23456 228.95376 229.83533 227.63937 231.29492 226.18164 C 232.75451 224.72392 234.07324 223.12305 235.26172 221.36914 C 236.45019 219.61523 237.50848 217.70822 238.45117 215.63281 C 239.39386 213.5574 240.22112 211.31482 240.94336 208.89258 C 241.6656 206.47033 242.28342 203.86862 242.81055 201.07422 C 243.33767 198.27982 243.77352 195.29149 244.13086 192.09961 C 244.4882 188.90772 244.76757 185.51118 244.98047 181.89648 C 245.40626 174.6671 245.56836 166.56671 245.56836 157.49414 L 245.56836 139.71484 L 5.5683594 139.71484 z" transform="translate(26.431979,27.568026)"/>
   <path style="opacity:0.05;fill:#ffffff" d="m 224.75777,266.17155 c 2.2264,-0.28368 4.48032,-0.55503 6.50669,-0.92383 2.8915,-0.52626 5.58493,-1.1441 8.09146,-1.86524 2.50651,-0.72113 4.82732,-1.54498 6.97505,-2.48633 2.14771,-0.94134 4.12224,-2.00063 5.93736,-3.1875 1.81512,-1.18686 3.46973,-2.50125 4.97842,-3.95898 1.50869,-1.45772 2.87178,-3.05859 4.10024,-4.8125 1.22845,-1.75391 2.32234,-3.66092 3.29674,-5.73633 0.97441,-2.07541 1.82949,-4.31799 2.57603,-6.74023 0.74653,-2.42225 1.38514,-5.02396 1.93,-7.81836 0.54485,-2.7944 0.99536,-5.78273 1.36472,-8.97461 0.36936,-3.19189 0.65813,-6.58843 0.87819,-10.20313 0.44011,-7.22938 0.60767,-15.32977 0.60767,-24.40234 v -58.125 c 0,-9.07261 -0.16756,-17.17294 -0.60767,-24.40235 -0.22006,-3.6147 -0.50883,-7.011231 -0.87819,-10.203122 -0.21008,-1.815451 -0.5102,-3.418418 -0.77523,-5.103516 H 151.43198 V 266.17155 Z"/>
   <path style="fill:#e4e4e4" d="M 243.38086 59.660156 C 243.18646 58.382547 243.03786 56.996048 242.81055 55.791016 C 242.28342 52.996611 241.6656 50.394901 240.94336 47.972656 C 240.22112 45.550411 239.39386 43.307833 238.45117 41.232422 C 237.50848 39.157011 236.45019 37.248043 235.26172 35.494141 C 234.07324 33.740238 232.75451 32.141314 231.29492 30.683594 C 229.83533 29.225873 228.23456 27.909521 226.47852 26.722656 C 224.72247 25.535792 222.8122 24.478444 220.73438 23.537109 C 218.65655 22.595775 216.41127 21.769958 213.98633 21.048828 C 211.56138 20.327698 208.9556 19.709846 206.1582 19.183594 C 203.36081 18.657341 200.37096 18.223888 197.17578 17.867188 C 193.9806 17.510487 190.58119 17.232005 186.96289 17.019531 C 179.72629 16.594583 171.61819 16.43164 162.53711 16.431641 L 88.599609 16.431641 C 79.518528 16.43164 71.41043 16.594583 64.173828 17.019531 C 60.555527 17.232005 57.154166 17.510487 53.958984 17.867188 C 50.763803 18.223888 47.773959 18.657341 44.976562 19.183594 C 42.179166 19.709846 39.575335 20.327698 37.150391 21.048828 C 34.725446 21.769959 32.48017 22.595775 30.402344 23.537109 C 28.324517 24.478444 26.414245 25.535792 24.658203 26.722656 C 22.902161 27.909521 21.299435 29.225873 19.839844 30.683594 C 18.380252 32.141314 17.063474 33.740238 15.875 35.494141 C 14.686526 37.248043 13.626285 39.157011 12.683594 41.232422 C 11.740903 43.307833 10.915601 45.550411 10.193359 47.972656 C 9.4711176 50.394901 8.8532978 52.996611 8.3261719 55.791016 C 8.0988592 56.996048 7.9502597 58.382547 7.7558594 59.660156 L 243.38086 59.660156 z" transform="translate(26.431979,27.568026)"/>
   <path d="M 78.990234,70.001953 C 43.622114,69.828963 39.998047,73.627098 39.998047,108.92383 V 110 H 263.99805 v -1.07617 c 0,-35.296732 -3.62603,-39.094867 -38.99414,-38.921877 h -73.00586 z" clip-path="url(#clipPath942-3)" transform="matrix(1.0518973,0,0,1,-7.8863557,-20.771818)" style="opacity:0.5;fill:url(#linearGradient928);filter:url(#filter932)"/>
   <g transform="matrix(2.1976903,0,0,2.1976903,12.814331,120.39613)" style="stroke:#ffffff;enable-background:new">
    <g transform="translate(1.6984499)">
     <g transform="translate(-1.1157514)">
      <path d="m 62.750441,-1.1100638 a 7.5837201,11.375581 0 0 0 -7.584312,11.3755788 7.5837201,11.375581 0 0 0 0.03377,0.99003 L 43.652799,-0.52795407 40.971539,2.0990935 57.707861,19.17668 H 42.525906 v 3.72906 h 12.297176 a 10.111626,13.27151 0 0 0 -2.059157,6.243237 l -11.792386,12.03412 2.68126,2.627045 9.296871,-9.488831 a 10.111626,13.27151 0 0 0 9.800771,10.070942 10.111626,13.27151 0 0 0 9.802551,-10.067388 l 9.29509,9.485277 2.680374,-2.627045 -11.79239,-12.03412 A 10.111626,13.27151 0 0 0 70.668909,22.90574 H 82.9732 V 19.17668 H 67.789468 L 84.528456,2.0928725 81.848082,-0.53417515 70.296537,11.255545 a 7.5837201,11.375581 0 0 0 0.03733,-0.99003 7.5837201,11.375581 0 0 0 -7.583426,-11.3755788 z" style="fill:#3f3f3f;fill-rule:evenodd"/>
      <path style="fill:#3f3f3f;fill-rule:evenodd;filter:url(#filter1001)" d="m 125.56836,78.431641 a 16.666668,25.000003 0 0 0 -16.66797,24.999999 16.666668,25.000003 0 0 0 0.0742,2.17578 L 83.597656,79.710938 77.705078,85.484375 114.48633,123.01562 H 81.121094 v 8.19532 h 27.025386 a 22.222223,29.166669 0 0 0 -4.52539,13.7207 l -25.916012,26.44727 5.892578,5.77343 20.431644,-20.85351 a 22.222223,29.166669 0 0 0 21.53906,22.13281 22.222223,29.166669 0 0 0 21.54297,-22.125 l 20.42773,20.8457 5.89063,-5.77343 -25.91602,-26.44727 a 22.222223,29.166669 0 0 0 -4.54297,-13.7207 h 27.04102 v -8.19532 h -33.36914 l 36.78711,-37.544917 -5.89063,-5.773437 -25.38672,25.910154 a 16.666668,25.000003 0 0 0 0.082,-2.17578 16.666668,25.000003 0 0 0 -16.66602,-24.999999 z" transform="matrix(0.45502317,0,0,0.45502317,5.6139283,-36.798278)"/>
     </g>
    </g>
   </g>
  </g>
  <path d="M 361.9375,-212 C 507.2348,-212 528,-191.28677 528,-46.125 V 70.125 C 528,215.28618 507.2348,236 361.9375,236 H 214.0625 C 68.7652,236 48,215.28618 48,70.125 V -46.125 C 48,-191.28677 68.7652,-212 214.0625,-212 Z" clip-path="url(#clipPath1082-3-3675)" transform="matrix(0.13229167,0,0,0.13229167,-4.8768,261.66013)" style="opacity:0.4;fill:none;stroke:url(#linearGradient1108);stroke-width:8;stroke-linecap:round;stroke-linejoin:round"/>
 </g>
</svg>
